dist/flags/m/064.svg

<svg width="20" height="15" viewBox="0 0 20 15" fill="none" xmlns="http://www.w3.org/2000/svg">
<mask id="mask0" mask-type="alpha" maskUnits="userSpaceOnUse" x="0" y="0" width="20" height="15">
<rect width="20" height="15" fill="white"/>
</mask>
<g mask="url(#mask0)">
<path fill-rule="evenodd" clip-rule="evenodd" d="M0 0H20V15H0V0Z" fill="#FF6230"/>
<path fill-rule="evenodd" clip-rule="evenodd" d="M0 0V15L20 0H0Z" fill="#FECA00"/>
<g filter="url(#filter0_d)">
<path fill-rule="evenodd" clip-rule="evenodd" d="M2.73889 10.2055C2.73889 10.2055 1.7994 11.0615 2.54432 11.1065C3.28916 11.1517 3.14951 11.6057 3.75887 11.1092C4.36823 10.6125 3.77715 11.1881 4.58991 11.0753C5.4024 10.9623 5.80862 9.97098 6.23768 10.0387C6.66634 10.1064 6.41805 9.9484 6.77921 10.3772C7.14045 10.8062 7.77499 9.89556 7.43634 10.5276C7.09796 11.1596 6.96247 11.7915 7.45913 11.769C7.95561 11.7465 8.15874 11.453 8.38442 11.137C8.61017 10.821 10.3709 11.9045 9.55841 10.821C8.74566 9.7375 8.43043 10.9398 8.36278 10.3755C8.29511 9.8112 8.13366 9.51774 8.51751 9.78862C8.90094 10.0594 9.80404 9.99178 9.1041 9.31454C8.40446 8.63743 8.50187 8.45691 8.29839 8.63743C8.09533 8.81797 7.5987 7.96029 8.29839 7.84746C8.99811 7.73453 9.80404 8.11821 10.0748 8.32136C10.3458 8.5246 11.181 8.27628 11.3615 8.68242C11.5421 9.08887 12.1515 9.15656 12.3095 9.4049C12.4677 9.65327 12.3547 10.8721 13.6413 10.8044C14.9279 10.7366 15.3341 10.082 14.7926 9.56286C14.2507 9.04373 14.296 8.09564 13.7316 8.54716C13.1673 8.99851 12.3547 8.9308 12.3547 8.38911C12.3547 7.84746 12.603 7.75714 12.5578 7.32823C12.5126 6.89927 12.4677 7.0799 13.3029 7.10243C14.1379 7.12504 13.8444 7.10243 14.4538 6.8091C15.0634 6.51564 15.4696 7.80223 15.718 6.85414C15.9663 5.90624 15.6278 4.93553 14.9506 5.31927C14.2733 5.70299 14.296 6.65104 13.4381 5.90624C12.5805 5.1612 12.1742 5.54493 12.445 5.13864C12.7157 4.73243 12.3773 4.43897 12.9867 4.70973C13.5961 4.98077 13.4157 5.07093 13.9347 5.13864C14.4538 5.20634 17.2077 5.54494 16.5984 4.98077C15.9889 4.4164 15.4038 4.50843 15.3135 4.14718C15.2231 3.7861 15.5948 3.87637 16.1365 3.67327C16.6783 3.47007 16.4525 2.43167 15.9332 2.63487C15.4141 2.83811 15.4585 3.74098 14.3976 3.17657C13.1803 3.70608 13.3687 3.44037 12.749 2.54294C12.207 2.11392 11.9136 2.0915 10.9883 2.58793C10.2579 2.88929 9.64674 3.44571 10.0305 4.19074C10.4144 4.93553 11.3284 6.33849 10.8319 6.42876C10.3352 6.51901 8.55206 5.18724 7.51371 5.88715C6.47529 6.58672 5.9085 7.26763 5.57012 8.08017C5.23149 8.89287 4.13582 9.36605 3.86486 9.36605C3.59406 9.36605 3.21268 9.84438 2.73889 10.2055Z" fill="white"/>
</g>
</g>
<defs>
<filter id="filter0_d" x="-0.742859" y="-0.781616" width="20.4288" height="15.5512" filterUnits="userSpaceOnUse" color-interpolation-filters="sRGB">
<feFlood flood-opacity="0" result="BackgroundImageFix"/>
<feColorMatrix in="SourceAlpha" type="matrix" values="0 0 0 0 0 0 0 0 0 0 0 0 0 0 0 0 0 0 127 0"/>
<feOffset/>
<feGaussianBlur stdDeviation="1.5"/>
<feColorMatrix type="matrix" values="0 0 0 0 0.866667 0 0 0 0 0.184314 0 0 0 0 0 0 0 0 0.38 0"/>
<feBlend mode="normal" in2="BackgroundImageFix" result="effect1_dropShadow"/>
<feBlend mode="normal" in="SourceGraphic" in2="effect1_dropShadow" result="shape"/>
</filter>
</defs>
</svg>

<svg width="20" height="15" fill="none" xmlns="http://www.w3.org/2000/svg">
  <mask id="a" maskUnits="userSpaceOnUse" x="0" y="0" width="20" height="15">
    <path fill="#fff" d="M0 0h20v15H0z"/>
  </mask>
  <g mask="url(#a)">
    <path fill-rule="evenodd" clip-rule="evenodd" d="M0 0h20v15H0V0z" fill="#FF6230"/>
    <path fill-rule="evenodd" clip-rule="evenodd" d="M0 0v15L20 0H0z" fill="#FECA00"/>
    <g filter="url(#BT_-_Bhutan__filter0_d)">
      <path fill-rule="evenodd" clip-rule="evenodd" d="M2.739 10.206s-.94.856-.195.9c.745.046.606.5 1.215.003.61-.496.018.08.83-.034.813-.113 1.22-1.104 1.649-1.036.428.067.18-.09.541.338.361.43.996-.481.657.15-.338.633-.474 1.264.023 1.242.497-.023.7-.316.925-.632.226-.316 1.987.768 1.174-.316-.812-1.083-1.128.119-1.195-.445-.068-.565-.23-.858.155-.587.383.27 1.286.203.586-.474-.7-.678-.602-.858-.806-.678-.203.181-.7-.677 0-.79.7-.112 1.506.271 1.777.474.27.204 1.106-.045 1.287.361.18.407.79.475.947.723.159.248.046 1.467 1.332 1.4 1.287-.068 1.693-.723 1.152-1.242-.542-.52-.497-1.467-1.061-1.016-.565.452-1.377.384-1.377-.158s.248-.632.203-1.06c-.045-.43-.09-.25.745-.227.835.023.541 0 1.15-.293.61-.293 1.017.993 1.265.045s-.09-1.918-.767-1.535c-.678.384-.655 1.332-1.513.587-.857-.745-1.264-.361-.993-.767.27-.407-.068-.7.542-.43.61.272.429.362.948.43.519.067 3.273.406 2.663-.158-.61-.565-1.194-.473-1.284-.834-.09-.36.28-.27.823-.474.541-.203.316-1.241-.204-1.038-.519.203-.474 1.106-1.535.542-1.218.53-1.03.263-1.649-.634-.542-.43-.835-.452-1.76.045-.731.301-1.342.858-.959 1.603.384.745 1.298 2.147.802 2.238-.497.09-2.28-1.242-3.318-.542-1.039.7-1.606 1.38-1.944 2.193-.339.813-1.434 1.286-1.705 1.286-.27 0-.652.478-1.126.84z" fill="#fff"/>
    </g>
  </g>
  <defs>
    <filter id="BT_-_Bhutan__filter0_d" x="-.743" y="-.782" width="20.429" height="15.551" filterUnits="userSpaceOnUse" color-interpolation-filters="sRGB">
      <feFlood flood-opacity="0" result="BackgroundImageFix"/>
      <feColorMatrix in="SourceAlpha" values="0 0 0 0 0 0 0 0 0 0 0 0 0 0 0 0 0 0 127 0"/>
      <feOffset/>
      <feGaussianBlur stdDeviation="1.5"/>
      <feColorMatrix values="0 0 0 0 0.866667 0 0 0 0 0.184314 0 0 0 0 0 0 0 0 0.38 0"/>
      <feBlend in2="BackgroundImageFix" result="effect1_dropShadow"/>
      <feBlend in="SourceGraphic" in2="effect1_dropShadow" result="shape"/>
    </filter>
  </defs>
</svg>
